X: 42642
T: Whiskey Hollow
R: reel
M: 4/4
K: Cmajor
c2Ac GEE2|GAce dcAG|EcAG EDCD|EA,A,G, A,3C|
G,A,CD E3G|(3ABc de cAAa|(3gag ed cAAc|G3F EGBd:|
c2ea (3gag ea|(3gag ed cAAd|f3a (3gag fd|eAAG c3A|
GAce dcAG|F3G EA,A,C|G,A,CD E3G|(3ABc de cAAB:|

